public/svg/enterprise_compliance/approval-group.svg

<svg width="47" height="53" viewBox="0 0 47 53" fill="none" xmlns="http://www.w3.org/2000/svg">
<g clip-path="url(#clip0_328_103724)">
<path d="M28.8946 48.7222H8.99966C7.71415 48.7222 6.40837 48.7922 5.12692 48.714C3.22097 48.5987 1.6151 47.0506 1.35557 45.14C1.27446 44.5389 1.31907 43.8925 1.31501 43.2872C1.29879 40.6355 1.28663 37.988 1.27041 35.3364C1.25419 32.0795 1.23796 28.8225 1.23796 25.5615V10.5245L1.05954 10.961C3.98335 8.08287 6.90311 5.20888 9.82692 2.33077C10.2487 1.91491 10.6704 1.49904 11.0921 1.08318L10.6623 1.26435H34.1217C35.0585 1.26435 35.9953 1.25199 36.932 1.26435C38.5744 1.28905 40.0099 2.49135 40.2695 4.15893C40.3303 4.53773 40.306 4.93713 40.306 5.32005V17.8783C40.306 21.6952 40.2532 25.5162 40.306 29.3331C40.306 29.399 40.306 29.4649 40.306 29.5307C40.306 30.3254 41.5225 30.3254 41.5225 29.5307V5.3077C41.5225 4.49244 41.4901 3.69777 41.1738 2.9278C40.456 1.16553 38.769 0.0620476 36.9077 0.0373428C36.4576 0.0332253 36.0074 0.0373428 35.5532 0.0373428H11.9924C11.5626 0.0373428 11.1124 -0.00383183 10.6826 0.0373428C10.1594 0.0867524 9.6931 0.749664 9.34435 1.09553L3.19664 7.14409L0.698621 9.60221C0.349872 9.94808 0.0295093 10.1828 0.0173437 10.7139C-0.0150981 12.8344 0.0213989 14.9673 0.0213989 17.0919C0.0213989 21.3782 0.00112278 25.6644 0.0213989 29.9466C0.0457302 34.7887 0.0578959 39.6309 0.0984481 44.4689C0.114669 46.1447 0.791891 47.7299 2.10173 48.7799C3.13175 49.6075 4.34832 49.9534 5.64599 49.9534H28.8905C29.6732 49.9534 29.6732 48.7181 28.8905 48.7181L28.8946 48.7222Z" fill="#231F20"/>
<path d="M10.8364 0.403546V9.01316C10.8364 9.95606 10.0861 10.7178 9.1575 10.7178H0.398225C0.0413653 10.7178 -0.137064 10.2772 0.118414 10.0219L10.1591 0.115324C10.4106 -0.135842 10.8364 0.0494443 10.8364 0.403546Z" fill="#4389FA" fill-opacity="0.25"/>
<path d="M44.43 35.4927C44.3571 32.4005 42.4754 29.6747 39.6206 28.5754C36.8103 27.4925 33.4282 28.3818 31.502 30.7288C30.403 32.067 29.7988 33.6851 29.742 35.4227C28.1118 35.7109 26.875 37.1438 26.875 38.8814V49.4838C26.875 51.4273 28.4282 53.0043 30.3422 53.0043H43.5379C45.452 53.0043 47.0051 51.4273 47.0051 49.4838V38.8814C47.0051 37.255 45.9102 35.9003 44.4341 35.4968L44.43 35.4927ZM37.086 30.2882C39.8841 30.2882 42.1307 32.5693 42.2767 35.3568H31.8913C32.0414 32.5734 34.2839 30.2841 37.082 30.2882H37.086ZM37.8525 49.1092V50.5009C37.8525 50.9373 37.5037 51.2585 37.0901 51.2749C36.6765 51.2955 36.3277 50.9044 36.3277 50.5009V49.1092C34.8881 48.7592 33.8175 47.4498 33.8175 45.8811C33.8175 44.0447 35.2815 42.5583 37.0901 42.5583C38.8987 42.5583 40.3627 44.0447 40.3627 45.8811C40.3627 47.4498 39.2921 48.7592 37.8525 49.1092Z" fill="url(#paint0_linear_328_103724)"/>
<path d="M21.4943 6.15984V12.0437C21.4943 12.4019 21.2064 12.6943 20.8536 12.6943C20.5008 12.6943 20.2129 12.4019 20.2129 12.0437V6.15984C20.2129 5.80162 20.5008 5.50928 20.8536 5.50928C21.2064 5.50928 21.4943 5.80162 21.4943 6.15984Z" fill="#231F20"/>
<path d="M27.8483 12.8342C27.2806 12.8342 26.7899 12.686 26.3844 12.3937C25.9788 12.1013 25.6666 11.6772 25.4476 11.1214C25.2286 10.5655 25.1191 9.89435 25.1191 9.11203C25.1191 8.32972 25.2327 7.66269 25.4476 7.11095C25.6666 6.55921 25.9788 6.13922 26.3844 5.851C26.7899 5.56278 27.2765 5.41455 27.8443 5.41455C28.412 5.41455 28.8986 5.55866 29.3082 5.851C29.7137 6.14334 30.03 6.56332 30.2449 7.11506C30.4599 7.6668 30.5734 8.33383 30.5734 9.11615C30.5734 9.89847 30.4639 10.5737 30.2449 11.1296C30.026 11.6854 29.7137 12.1095 29.3082 12.4019C28.9027 12.6942 28.412 12.8425 27.8443 12.8425L27.8483 12.8342ZM27.8483 11.7349C28.2903 11.7349 28.6391 11.5125 28.8986 11.0678C29.1541 10.6231 29.2839 9.97258 29.2839 9.10792C29.2839 8.53559 29.223 8.05796 29.1095 7.67092C28.9919 7.28388 28.8256 6.98742 28.6107 6.78978C28.3958 6.59215 28.1443 6.49333 27.8483 6.49333C27.4103 6.49333 27.0616 6.71567 26.8061 7.16036C26.5506 7.60504 26.4209 8.25148 26.4209 9.10792C26.4209 9.68024 26.4736 10.162 26.5912 10.5531C26.7088 10.9443 26.871 11.2366 27.0859 11.4343C27.3008 11.6319 27.5563 11.7307 27.8483 11.7307V11.7349Z" fill="#231F20"/>
<path d="M35.4924 6.15984V12.0437C35.4924 12.4019 35.2045 12.6943 34.8517 12.6943C34.4989 12.6943 34.2109 12.4019 34.2109 12.0437V6.15984C34.2109 5.80162 34.4989 5.50928 34.8517 5.50928C35.2045 5.50928 35.4924 5.80162 35.4924 6.15984Z" fill="#231F20"/>
<path d="M6.4401 23.7288C5.87237 23.7288 5.38169 23.5805 4.97617 23.2882C4.57064 22.9958 4.25839 22.5717 4.03941 22.0159C3.82043 21.46 3.71094 20.7889 3.71094 20.0066C3.71094 19.2242 3.82448 18.5572 4.03941 18.0055C4.25839 17.4537 4.57064 17.0338 4.97617 16.7455C5.38169 16.4573 5.86831 16.3091 6.43605 16.3091C7.00378 16.3091 7.4904 16.4532 7.89998 16.7455C8.3055 17.0379 8.62181 17.4579 8.83674 18.0096C9.05166 18.5613 9.16521 19.2284 9.16521 20.0107C9.16521 20.793 9.05572 21.4683 8.83674 22.0241C8.61775 22.58 8.3055 23.0041 7.89998 23.2964C7.49446 23.5888 7.00378 23.737 6.43605 23.737L6.4401 23.7288ZM6.4401 22.6294C6.88212 22.6294 7.23087 22.407 7.4904 21.9624C7.74588 21.5177 7.87565 20.8671 7.87565 20.0024C7.87565 19.4301 7.81482 18.9525 7.70127 18.5655C7.58367 18.1784 7.41741 17.882 7.20248 17.6843C6.98756 17.4867 6.73613 17.3879 6.4401 17.3879C6.00214 17.3879 5.65339 17.6102 5.39791 18.0549C5.14243 18.4996 5.01266 19.146 5.01266 20.0024C5.01266 20.5748 5.06538 21.0565 5.18298 21.4477C5.30058 21.8388 5.46279 22.1312 5.67772 22.3288C5.89265 22.5265 6.14812 22.6253 6.4401 22.6253V22.6294Z" fill="#4389FA" fill-opacity="0.25"/>
<path d="M14.0842 17.0588V22.9426C14.0842 23.3008 13.7963 23.5932 13.4435 23.5932C13.0907 23.5932 12.8027 23.3008 12.8027 22.9426V17.0588C12.8027 16.7005 13.0907 16.4082 13.4435 16.4082C13.7963 16.4082 14.0842 16.7005 14.0842 17.0588Z" fill="#4389FA" fill-opacity="0.25"/>
<path d="M20.4401 23.7288C19.8724 23.7288 19.3817 23.5805 18.9762 23.2882C18.5706 22.9958 18.2584 22.5717 18.0394 22.0159C17.8204 21.46 17.7109 20.7889 17.7109 20.0066C17.7109 19.2242 17.8245 18.5572 18.0394 18.0055C18.2584 17.4537 18.5706 17.0338 18.9762 16.7455C19.3817 16.4573 19.8683 16.3091 20.436 16.3091C21.0038 16.3091 21.4904 16.4532 21.9 16.7455C22.3055 17.0379 22.6218 17.4579 22.8367 18.0096C23.0517 18.5613 23.1652 19.2284 23.1652 20.0107C23.1652 20.793 23.0557 21.4683 22.8367 22.0241C22.6178 22.58 22.3055 23.0041 21.9 23.2964C21.4945 23.5888 21.0038 23.737 20.436 23.737L20.4401 23.7288ZM20.4401 22.6294C20.8821 22.6294 21.2309 22.407 21.4904 21.9624C21.7459 21.5177 21.8756 20.8671 21.8756 20.0024C21.8756 19.4301 21.8148 18.9525 21.7013 18.5655C21.5837 18.1784 21.4174 17.882 21.2025 17.6843C20.9876 17.4867 20.7361 17.3879 20.4401 17.3879C20.0021 17.3879 19.6534 17.6102 19.3979 18.0549C19.1424 18.4996 19.0127 19.146 19.0127 20.0024C19.0127 20.5748 19.0654 21.0565 19.183 21.4477C19.3006 21.8388 19.4628 22.1312 19.6777 22.3288C19.8926 22.5265 20.1481 22.6253 20.4401 22.6253V22.6294Z" fill="#4389FA" fill-opacity="0.25"/>
<path d="M28.0783 17.0588V22.9426C28.0783 23.3008 27.7904 23.5932 27.4376 23.5932C27.0848 23.5932 26.7969 23.3008 26.7969 22.9426V17.0588C26.7969 16.7005 27.0848 16.4082 27.4376 16.4082C27.7904 16.4082 28.0783 16.7005 28.0783 17.0588Z" fill="#4389FA" fill-opacity="0.25"/>
<path d="M34.4381 23.7288C33.8704 23.7288 33.3797 23.5805 32.9742 23.2882C32.5687 22.9958 32.2564 22.5717 32.0375 22.0159C31.8185 21.46 31.709 20.7889 31.709 20.0066C31.709 19.2242 31.8225 18.5572 32.0375 18.0055C32.2564 17.4537 32.5687 17.0338 32.9742 16.7455C33.3797 16.4573 33.8664 16.3091 34.4341 16.3091C35.0018 16.3091 35.4884 16.4532 35.898 16.7455C36.3035 17.0379 36.6199 17.4579 36.8348 18.0096C37.0497 18.5613 37.1633 19.2284 37.1633 20.0107C37.1633 20.793 37.0538 21.4683 36.8348 22.0241C36.6158 22.58 36.3035 23.0041 35.898 23.2964C35.4925 23.5888 35.0018 23.737 34.4341 23.737L34.4381 23.7288ZM34.4381 22.6294C34.8802 22.6294 35.2289 22.407 35.4884 21.9624C35.7439 21.5177 35.8737 20.8671 35.8737 20.0024C35.8737 19.4301 35.8129 18.9525 35.6993 18.5655C35.5817 18.1784 35.4155 17.882 35.2005 17.6843C34.9856 17.4867 34.7342 17.3879 34.4381 17.3879C34.0002 17.3879 33.6514 17.6102 33.396 18.0549C33.1405 18.4996 33.0107 19.146 33.0107 20.0024C33.0107 20.5748 33.0634 21.0565 33.181 21.4477C33.2986 21.8388 33.4608 22.1312 33.6758 22.3288C33.8907 22.5265 34.1462 22.6253 34.4381 22.6253V22.6294Z" fill="#4389FA" fill-opacity="0.25"/>
<path d="M6.4401 43.74C5.87237 43.74 5.38169 43.5918 4.97617 43.2994C4.57064 43.0071 4.25839 42.583 4.03941 42.0271C3.82043 41.4713 3.71094 40.8001 3.71094 40.0178C3.71094 39.2355 3.82448 38.5684 4.03941 38.0167C4.25839 37.465 4.57064 37.045 4.97617 36.7568C5.38169 36.4685 5.86831 36.3203 6.43605 36.3203C7.00378 36.3203 7.4904 36.4644 7.89998 36.7568C8.3055 37.0491 8.62181 37.4691 8.83674 38.0208C9.05166 38.5726 9.16521 39.2396 9.16521 40.0219C9.16521 40.8042 9.05572 41.4795 8.83674 42.0354C8.61775 42.5912 8.3055 43.0153 7.89998 43.3077C7.49446 43.6 7.00378 43.7482 6.43605 43.7482L6.4401 43.74ZM6.4401 42.6447C6.88212 42.6447 7.23087 42.4224 7.4904 41.9777C7.74588 41.533 7.87565 40.8825 7.87565 40.0178C7.87565 39.4455 7.81482 38.9678 7.70127 38.5808C7.58367 38.1938 7.41741 37.8973 7.20248 37.6997C6.98756 37.502 6.73613 37.4032 6.4401 37.4032C6.00214 37.4032 5.65339 37.6255 5.39791 38.0702C5.14243 38.5149 5.01266 39.1614 5.01266 40.0178C5.01266 40.5901 5.06538 41.0719 5.18298 41.463C5.30058 41.8542 5.46279 42.1465 5.67772 42.3442C5.89265 42.5418 6.14812 42.6406 6.4401 42.6406V42.6447Z" fill="#4389FA" fill-opacity="0.25"/>
<path d="M14.0842 37.0695V42.9534C14.0842 43.3116 13.7963 43.6039 13.4435 43.6039C13.0907 43.6039 12.8027 43.3116 12.8027 42.9534V37.0695C12.8027 36.7113 13.0907 36.4189 13.4435 36.4189C13.7963 36.4189 14.0842 36.7113 14.0842 37.0695Z" fill="#4389FA" fill-opacity="0.25"/>
<path d="M20.4401 43.74C19.8724 43.74 19.3817 43.5918 18.9762 43.2994C18.5706 43.0071 18.2584 42.583 18.0394 42.0271C17.8204 41.4713 17.7109 40.8001 17.7109 40.0178C17.7109 39.2355 17.8245 38.5684 18.0394 38.0167C18.2584 37.465 18.5706 37.045 18.9762 36.7568C19.3817 36.4685 19.8683 36.3203 20.436 36.3203C21.0038 36.3203 21.4904 36.4644 21.9 36.7568C22.3055 37.0491 22.6218 37.4691 22.8367 38.0208C23.0517 38.5726 23.1652 39.2396 23.1652 40.0219C23.1652 40.8042 23.0557 41.4795 22.8367 42.0354C22.6178 42.5912 22.3055 43.0153 21.9 43.3077C21.4945 43.6 21.0038 43.7482 20.436 43.7482L20.4401 43.74ZM20.4401 42.6447C20.8821 42.6447 21.2309 42.4224 21.4904 41.9777C21.7459 41.533 21.8756 40.8825 21.8756 40.0178C21.8756 39.4455 21.8148 38.9678 21.7013 38.5808C21.5837 38.1938 21.4174 37.8973 21.2025 37.6997C20.9876 37.502 20.7361 37.4032 20.4401 37.4032C20.0021 37.4032 19.6534 37.6255 19.3979 38.0702C19.1424 38.5149 19.0127 39.1614 19.0127 40.0178C19.0127 40.5901 19.0654 41.0719 19.183 41.463C19.3006 41.8542 19.4628 42.1465 19.6777 42.3442C19.8926 42.5418 20.1481 42.6406 20.4401 42.6406V42.6447Z" fill="#4389FA" fill-opacity="0.25"/>
<path d="M6.66426 26.9655V32.8494C6.66426 33.2076 6.37634 33.4999 6.02354 33.4999C5.67073 33.4999 5.38281 33.2076 5.38281 32.8494V26.9655C5.38281 26.6073 5.67073 26.3149 6.02354 26.3149C6.37634 26.3149 6.66426 26.6073 6.66426 26.9655Z" fill="#231F20"/>
<path d="M13.0182 33.6355C12.4505 33.6355 11.9598 33.4873 11.5543 33.1949C11.1488 32.9026 10.8365 32.4785 10.6175 31.9226C10.3986 31.3668 10.2891 30.6956 10.2891 29.9133C10.2891 29.131 10.4026 28.464 10.6175 27.9122C10.8365 27.3605 11.1488 26.9405 11.5543 26.6523C11.9598 26.3641 12.4464 26.2158 13.0142 26.2158C13.5819 26.2158 14.0685 26.3599 14.4781 26.6523C14.8836 26.9446 15.1999 27.3646 15.4149 27.9163C15.6298 28.4681 15.7433 29.1351 15.7433 29.9174C15.7433 30.6997 15.6338 31.375 15.4149 31.9309C15.1959 32.4867 14.8836 32.9108 14.4781 33.2032C14.0726 33.4955 13.5819 33.6437 13.0142 33.6437L13.0182 33.6355ZM13.0182 32.5361C13.4602 32.5361 13.809 32.3138 14.0685 31.8691C14.324 31.4244 14.4538 30.7739 14.4538 29.9092C14.4538 29.3369 14.3929 28.8592 14.2794 28.4722C14.1618 28.0852 13.9955 27.7887 13.7806 27.5911C13.5657 27.3934 13.3143 27.2946 13.0182 27.2946C12.5803 27.2946 12.2315 27.5169 11.976 27.9616C11.7206 28.4063 11.5908 29.0528 11.5908 29.9092C11.5908 30.4815 11.6435 30.9633 11.7611 31.3544C11.8787 31.7456 12.0409 32.0379 12.2558 32.2356C12.4708 32.4332 12.7262 32.532 13.0182 32.532V32.5361Z" fill="#231F20"/>
<path d="M20.6623 26.9655V32.8494C20.6623 33.2076 20.3744 33.4999 20.0216 33.4999C19.6688 33.4999 19.3809 33.2076 19.3809 32.8494V26.9655C19.3809 26.6073 19.6688 26.3149 20.0216 26.3149C20.3744 26.3149 20.6623 26.6073 20.6623 26.9655Z" fill="#231F20"/>
<path d="M27.0163 33.6355C26.4485 33.6355 25.9579 33.4873 25.5523 33.1949C25.1468 32.9026 24.8346 32.4785 24.6156 31.9226C24.3966 31.3668 24.2871 30.6956 24.2871 29.9133C24.2871 29.131 24.4007 28.464 24.6156 27.9122C24.8346 27.3605 25.1468 26.9405 25.5523 26.6523C25.9579 26.3641 26.4445 26.2158 27.0122 26.2158C27.5799 26.2158 28.0666 26.3599 28.4762 26.6523C28.8817 26.9446 29.198 27.3646 29.4129 27.9163C29.6278 28.4681 29.7414 29.1351 29.7414 29.9174C29.7414 30.6997 29.6319 31.375 29.4129 31.9309C29.1939 32.4867 28.8817 32.9108 28.4762 33.2032C28.0706 33.4955 27.5799 33.6437 27.0122 33.6437L27.0163 33.6355ZM27.0163 32.5361C27.4583 32.5361 27.807 32.3138 28.0666 31.8691C28.3221 31.4244 28.4518 30.7739 28.4518 29.9092C28.4518 29.3369 28.391 28.8592 28.2774 28.4722C28.1598 28.0852 27.9936 27.7887 27.7787 27.5911C27.5637 27.3934 27.3123 27.2946 27.0163 27.2946C26.5783 27.2946 26.2296 27.5169 25.9741 27.9616C25.7186 28.4063 25.5888 29.0528 25.5888 29.9092C25.5888 30.4815 25.6416 30.9633 25.7592 31.3544C25.8768 31.7456 26.039 32.0379 26.2539 32.2356C26.4688 32.4332 26.7243 32.532 27.0163 32.532V32.5361Z" fill="#231F20"/>
</g>
<defs>
<linearGradient id="paint0_linear_328_103724" x1="36.9401" y1="28.1182" x2="36.9401" y2="53.0043" gradientUnits="userSpaceOnUse">
<stop stop-color="#3B82F6"/>
<stop offset="1" stop-color="#9DC1FB"/>
</linearGradient>
<clipPath id="clip0_328_103724">
<rect width="47" height="53" fill="white"/>
</clipPath>
</defs>
</svg>

<svg xmlns="http://www.w3.org/2000/svg" width="47" height="53" fill="none" viewBox="0 0 47 53"><g clip-path="url(#a)"><path fill="#231f20" d="M28.895 48.722H9c-1.286 0-2.592.07-3.873-.008-1.906-.115-3.512-1.663-3.771-3.574-.082-.601-.037-1.248-.041-1.853-.016-2.651-.028-5.299-.045-7.95-.016-3.258-.032-6.515-.032-9.776V10.526l-.178.436 8.767-8.63 1.265-1.248-.43.181h23.46c.937 0 1.873-.012 2.81 0a3.43 3.43 0 0 1 3.337 2.895c.061.379.037.778.037 1.161v12.558c0 3.817-.053 7.638 0 11.455v.198c0 .794 1.217.794 1.217 0V5.308c0-.816-.033-1.61-.35-2.38-.717-1.762-2.404-2.866-4.265-2.89-.45-.005-.9 0-1.355 0h-23.56c-.43 0-.88-.042-1.31 0-.524.049-.99.712-1.339 1.058L3.197 7.144.699 9.602c-.35.346-.67.58-.682 1.112-.032 2.12.004 4.253.004 6.378 0 4.286-.02 8.572 0 12.855.025 4.842.037 9.684.077 14.522.017 1.676.694 3.26 2.004 4.31 1.03.828 2.246 1.174 3.544 1.174h23.245c.782 0 .782-1.235 0-1.235z"/><path fill="#4389fa" fill-opacity=".25" d="M10.836.404v8.61a1.69 1.69 0 0 1-1.678 1.704H.398c-.357 0-.535-.44-.28-.696L10.16.115c.252-.25.677-.066.677.289"/><path fill="url(#b)" d="M44.43 35.493c-.073-3.093-1.955-5.818-4.81-6.918-2.81-1.082-6.192-.193-8.118 2.154a7.7 7.7 0 0 0-1.76 4.694 3.49 3.49 0 0 0-2.867 3.458v10.603c0 1.943 1.553 3.52 3.467 3.52h13.196c1.914 0 3.467-1.577 3.467-3.52V38.88a3.5 3.5 0 0 0-2.57-3.384zm-7.344-5.205c2.798 0 5.045 2.281 5.19 5.069H31.892c.15-2.784 2.393-5.073 5.191-5.069zm.767 18.821v1.392a.78.78 0 0 1-.763.774c-.414.02-.762-.37-.762-.774v-1.392a3.31 3.31 0 0 1-2.51-3.228c0-1.836 1.464-3.323 3.272-3.323 1.809 0 3.273 1.487 3.273 3.323a3.31 3.31 0 0 1-2.51 3.228"/><path fill="#231f20" d="M21.494 6.16v5.884c0 .358-.288.65-.64.65a.647.647 0 0 1-.641-.65V6.16c0-.358.288-.65.64-.65s.641.292.641.65m6.354 6.674c-.567 0-1.058-.148-1.464-.44q-.608-.44-.936-1.273-.33-.835-.329-2.009c0-.782.114-1.45.329-2.001q.328-.828.936-1.26.608-.434 1.46-.436.851-.001 1.464.436c.406.292.722.712.937 1.264s.328 1.219.328 2.001-.11 1.458-.328 2.014q-.328.833-.937 1.272c-.405.292-.896.44-1.464.44zm0-1.1q.662 0 1.05-.666c.256-.445.386-1.095.386-1.96 0-.572-.061-1.05-.174-1.437-.118-.387-.284-.684-.5-.881a1.08 1.08 0 0 0-.762-.297q-.657 0-1.042.667c-.255.445-.385 1.091-.385 1.948 0 .572.053 1.054.17 1.445s.28.684.495.881q.323.297.762.297zm7.644-5.574v5.884c0 .358-.287.65-.64.65a.647.647 0 0 1-.641-.65V6.16c0-.358.288-.65.64-.65.354 0 .641.292.641.65"/><path fill="#4389fa" fill-opacity=".25" d="M6.44 23.729q-.853-.001-1.464-.44-.608-.44-.937-1.273-.328-.835-.328-2.01c0-.782.113-1.449.328-2q.33-.828.937-1.26.609-.435 1.46-.437.85-.001 1.464.436c.406.293.722.713.937 1.265s.328 1.218.328 2c0 .783-.11 1.458-.328 2.014q-.329.834-.937 1.272-.61.44-1.464.441zm0-1.1q.661 0 1.05-.667.385-.664.386-1.96-.002-.858-.175-1.436-.176-.584-.499-.882a1.08 1.08 0 0 0-.762-.296q-.658 0-1.042.667c-.256.445-.385 1.091-.385 1.947 0 .573.052 1.055.17 1.446.118.39.28.683.495.88q.323.297.762.297zm7.644-5.57v5.884c0 .358-.288.65-.64.65a.647.647 0 0 1-.641-.65v-5.884c0-.358.288-.65.64-.65s.641.292.641.65m6.356 6.67q-.854-.001-1.464-.44-.608-.44-.937-1.273-.328-.835-.328-2.01c0-.782.114-1.449.328-2q.33-.828.937-1.26.608-.435 1.46-.437.85-.001 1.464.436c.406.293.722.713.937 1.265s.328 1.218.328 2c0 .783-.11 1.458-.328 2.014q-.33.834-.937 1.272c-.405.293-.896.441-1.464.441zm0-1.1q.661 0 1.05-.667.385-.664.386-1.96-.002-.858-.175-1.436-.176-.584-.498-.882a1.08 1.08 0 0 0-.763-.296q-.658 0-1.042.667c-.256.445-.385 1.091-.385 1.947 0 .573.052 1.055.17 1.446.118.39.28.683.495.88q.323.297.762.297zm7.638-5.57v5.884c0 .358-.288.65-.64.65a.647.647 0 0 1-.641-.65v-5.884c0-.358.288-.65.64-.65s.641.292.641.65m6.36 6.67q-.853-.001-1.464-.44-.608-.44-.936-1.273-.33-.835-.329-2.01c0-.782.114-1.449.329-2q.327-.828.936-1.26.608-.435 1.46-.437.85-.001 1.464.436c.405.293.722.713.937 1.265s.328 1.218.328 2c0 .783-.11 1.458-.328 2.014q-.33.834-.937 1.272-.61.44-1.464.441zm0-1.1q.662 0 1.05-.667.385-.664.386-1.96-.002-.858-.175-1.436-.175-.584-.498-.882a1.08 1.08 0 0 0-.763-.296q-.658 0-1.042.667c-.255.445-.385 1.091-.385 1.947 0 .573.052 1.055.17 1.446.118.39.28.683.495.88q.323.297.762.297zM6.44 43.74q-.853-.001-1.464-.44-.608-.44-.937-1.273-.328-.835-.328-2.01c0-.782.113-1.449.328-2q.33-.828.937-1.26c.406-.288.892-.437 1.46-.437q.85-.001 1.464.437c.406.292.722.712.937 1.264s.328 1.219.328 2c0 .783-.11 1.459-.328 2.014q-.329.834-.937 1.273-.61.439-1.464.44zm0-1.095q.661 0 1.05-.667.385-.666.386-1.96-.002-.857-.175-1.437c-.117-.387-.284-.684-.499-.881a1.08 1.08 0 0 0-.762-.297q-.658 0-1.042.667c-.256.445-.385 1.091-.385 1.948 0 .572.052 1.054.17 1.445s.28.684.495.881q.323.297.762.297zm7.644-5.575v5.883c0 .359-.288.65-.64.65a.647.647 0 0 1-.641-.65V37.07c0-.358.288-.65.64-.65s.641.292.641.65m6.356 6.67q-.854-.001-1.464-.44-.608-.44-.937-1.273-.328-.835-.328-2.01c0-.782.114-1.449.328-2q.33-.828.937-1.26c.406-.288.892-.437 1.46-.437q.85-.001 1.464.437c.406.292.722.712.937 1.264s.328 1.219.328 2c0 .783-.11 1.459-.328 2.014q-.33.834-.937 1.273c-.405.292-.896.44-1.464.44zm0-1.095q.661 0 1.05-.667.385-.666.386-1.96-.002-.857-.175-1.437c-.117-.387-.284-.684-.498-.881a1.08 1.08 0 0 0-.763-.297q-.658 0-1.042.667c-.256.445-.385 1.091-.385 1.948 0 .572.052 1.054.17 1.445s.28.684.495.881q.323.297.762.297z"/><path fill="#231f20" d="M6.664 26.966v5.883c0 .359-.288.65-.64.65a.647.647 0 0 1-.641-.65v-5.883c0-.359.288-.651.64-.651s.641.292.641.65m6.354 6.671q-.854-.002-1.464-.441-.608-.439-.937-1.272-.328-.835-.328-2.01c0-.782.114-1.449.329-2q.327-.83.936-1.26.608-.435 1.46-.437.851-.001 1.464.436c.406.293.722.713.937 1.264.215.552.328 1.22.328 2.001 0 .783-.11 1.458-.328 2.014q-.329.834-.937 1.272c-.405.292-.896.44-1.464.44zm0-1.1q.662 0 1.05-.667c.256-.445.386-1.095.386-1.96q-.002-.857-.175-1.437-.176-.582-.498-.88a1.08 1.08 0 0 0-.763-.297q-.658 0-1.042.667c-.255.444-.385 1.09-.385 1.947 0 .573.053 1.054.17 1.445.118.392.28.684.495.882q.323.296.762.296zm7.644-5.57v5.883c0 .359-.288.65-.64.65a.647.647 0 0 1-.641-.65v-5.883c0-.359.288-.651.64-.651s.641.292.641.65m6.354 6.671c-.567 0-1.058-.149-1.464-.441q-.608-.439-.936-1.272-.33-.835-.329-2.01c0-.782.114-1.449.329-2q.328-.83.936-1.26.61-.435 1.46-.437.851-.001 1.464.436c.406.293.722.713.937 1.264.215.552.328 1.22.328 2.001 0 .783-.11 1.458-.328 2.014q-.329.834-.937 1.272c-.405.292-.896.44-1.464.44zm0-1.1q.662 0 1.05-.667c.256-.445.386-1.095.386-1.96q-.002-.857-.175-1.437-.175-.582-.498-.88a1.08 1.08 0 0 0-.763-.297q-.657 0-1.042.667c-.255.444-.385 1.09-.385 1.947 0 .573.053 1.054.17 1.445.118.392.28.684.495.882q.323.296.762.296z"/></g><defs><linearGradient id="b" x1="36.94" x2="36.94" y1="28.118" y2="53.004" gradientUnits="userSpaceOnUse"><stop stop-color="#3b82f6"/><stop offset="1" stop-color="#9dc1fb"/></linearGradient><clipPath id="a"><path fill="#fff" d="M0 0h47v53H0z"/></clipPath></defs></svg>
